src/assets/duotone/Folder.svg

<svg width="24" height="24" viewBox="0 0 24 24"  xmlns="http://www.w3.org/2000/svg">
<path d="M22 11.0699V16.6499C22 19.5999 19.6 21.9999 16.65 21.9999H7.35C4.4 21.9999 2 19.5999 2 16.6499V9.43994H21.74C21.89 9.88994 21.97 10.3499 21.99 10.8399C22 10.9099 22 10.9999 22 11.0699Z" />
<path opacity="0.4" d="M21.74 9.44H2V6.42C2 3.98 3.98 2 6.42 2H8.75C10.38 2 10.89 2.53 11.54 3.4L12.94 5.26C13.25 5.67 13.29 5.73 13.87 5.73H16.66C19.03 5.72 21.05 7.28 21.74 9.44Z" />
</svg>

<?xml version="1.0" encoding="UTF-8"?>
<svg width="24" height="24" viewBox="0 0 24 24" xmlns="http://www.w3.org/2000/svg">
 <path d="m22 11.07v5.58c0 2.95-2.4 5.35-5.35 5.35h-9.3c-2.95 0-5.35-2.4-5.35-5.35v-7.21h19.74c0.15 0.45 0.23 0.90996 0.25 1.4 0.01 0.07 0.01 0.16 0.01 0.23z"/>
 <path d="m21.74 9.44h-19.74v-3.02c0-2.44 1.98-4.42 4.42-4.42h2.33c1.63 0 2.14 0.53 2.79 1.4l1.4 1.86c0.31 0.41 0.35 0.47 0.93 0.47h2.79c2.37-0.01 4.39 1.55 5.08 3.71z" opacity=".4"/>
</svg>
